communes/5938.svg

<?xml version="1.0" encoding="UTF-8" standalone="no"?>
<svg
   xmlns:i="http://ns.adobe.com/AdobeIllustrator/10.0/"
   xmlns:dc="http://purl.org/dc/elements/1.1/"
   xmlns:cc="http://web.resource.org/cc/"
   xmlns:rdf="http://www.w3.org/1999/02/22-rdf-syntax-ns#"
   xmlns:svg="http://www.w3.org/2000/svg"
   xmlns="http://www.w3.org/2000/svg"
   xmlns:xlink="http://www.w3.org/1999/xlink"
   xmlns:sodipodi="http://sodipodi.sourceforge.net/DTD/sodipodi-0.dtd"
   xmlns:inkscape="http://www.inkscape.org/namespaces/inkscape"
   height="763"
   width="603"
   version="1.0"
   id="svg20"
   sodipodi:version="0.32"
   inkscape:version="0.45"
   sodipodi:docname="Yverdon-Les-Bains-coat_of_arms.svg"
   sodipodi:docbase="/home/xenon/Wikipedia/Yverdon-Les-Bains"
   inkscape:output_extension="org.inkscape.output.svg.inkscape"
   sodipodi:modified="true">
  <metadata
     id="metadata31">
    <rdf:RDF>
      <cc:Work
         rdf:about="">
        <dc:format>image/svg+xml</dc:format>
        <dc:type
           rdf:resource="http://purl.org/dc/dcmitype/StillImage" />
        <dc:date>16-APR-2007</dc:date>
        <dc:creator>
          <cc:Agent>
            <dc:title>Romain AVIOLAT (xens)</dc:title>
          </cc:Agent>
        </dc:creator>
        <cc:license
           rdf:resource="http://creativecommons.org/licenses/GPL/2.0/" />
        <dc:coverage />
        <dc:description>Blason de la commune d'Yverdon pour le Projet:Blasons de WIkipédia</dc:description>
        <dc:subject>
          <rdf:Bag>
            <rdf:li>blason suisse commune d'Yverdon projet blasons</rdf:li>
          </rdf:Bag>
        </dc:subject>
        <dc:language>fr</dc:language>
        <dc:title>blason de la commune d'Yverdon</dc:title>
      </cc:Work>
      <cc:License
         rdf:about="http://creativecommons.org/licenses/GPL/2.0/">
        <cc:permits
           rdf:resource="http://web.resource.org/cc/Reproduction" />
        <cc:permits
           rdf:resource="http://web.resource.org/cc/Distribution" />
        <cc:requires
           rdf:resource="http://web.resource.org/cc/Notice" />
        <cc:permits
           rdf:resource="http://web.resource.org/cc/DerivativeWorks" />
        <cc:requires
           rdf:resource="http://web.resource.org/cc/ShareAlike" />
        <cc:requires
           rdf:resource="http://web.resource.org/cc/SourceCode" />
      </cc:License>
    </rdf:RDF>
  </metadata>
  <defs
     id="defs29">
    <linearGradient
       id="linearGradient3753">
      <stop
         style="stop-color:#040000;stop-opacity:1;"
         offset="0"
         id="stop3755" />
      <stop
         style="stop-color:#000000;stop-opacity:0;"
         offset="1"
         id="stop3757" />
    </linearGradient>
    <linearGradient
       id="linearGradient3338">
      <stop
         style="stop-color:#000000;stop-opacity:1;"
         offset="0"
         id="stop3340" />
      <stop
         style="stop-color:#e20909;stop-opacity:0;"
         offset="1"
         id="stop3342" />
    </linearGradient>
    <linearGradient
       id="linearGradient2893">
      <stop
         style="stop-color:#ffffff;stop-opacity:0.3137255;"
         offset="0"
         id="stop2895" />
      <stop
         id="stop2897"
         offset="0.19"
         style="stop-color:#ffffff;stop-opacity:0.25098041;" />
      <stop
         style="stop-color:#6b6b6b;stop-opacity:0.1254902;"
         offset="0.60000002"
         id="stop2901" />
      <stop
         style="stop-color:#000000;stop-opacity:0.1254902;"
         offset="1"
         id="stop2899" />
    </linearGradient>
    <linearGradient
       id="linearGradient2955">
      <stop
         style="stop-color:white;stop-opacity:0;"
         offset="0"
         id="stop2965" />
      <stop
         style="stop-color:black;stop-opacity:0.64583331;"
         offset="1"
         id="stop2959" />
    </linearGradient>
    <radialGradient
       inkscape:collect="always"
       xlink:href="#linearGradient2893"
       id="radialGradient3236"
       gradientUnits="userSpaceOnUse"
       gradientTransform="matrix(1.215027,1.531577e-24,1.464684e-23,1.266667,-839.1924,-490.4894)"
       cx="858.04236"
       cy="579.93323"
       fx="858.04236"
       fy="579.93323"
       r="300" />
    <foreignObject
       requiredExtensions="http://ns.adobe.com/AdobeIllustrator/10.0/"
       x="0"
       y="0"
       width="1"
       height="1"
       id="foreignObject1951">
      <i:pgfRef
         xlink:href="#adobe_illustrator_pgf" />
    </foreignObject>
    <foreignObject
       requiredExtensions="http://ns.adobe.com/AdobeIllustrator/10.0/"
       x="0"
       y="0"
       width="1"
       height="1"
       id="foreignObject3796">
      <i:pgfRef
         xlink:href="#adobe_illustrator_pgf" />
    </foreignObject>
    <foreignObject
       id="foreignObject3027"
       height="1"
       width="1"
       y="0"
       x="0"
       requiredExtensions="http://ns.adobe.com/AdobeIllustrator/10.0/">
      <i:pgfRef
         xlink:href="#adobe_illustrator_pgf" />
    </foreignObject>
    <foreignObject
       id="foreignObject3025"
       height="1"
       width="1"
       y="0"
       x="0"
       requiredExtensions="http://ns.adobe.com/AdobeIllustrator/10.0/">
      <i:pgfRef
         xlink:href="#adobe_illustrator_pgf" />
    </foreignObject>
    <radialGradient
       r="300"
       fy="579.93323"
       fx="858.04236"
       cy="579.93323"
       cx="858.04236"
       gradientTransform="matrix(1.215027,0,0,1.266667,-839.1924,-490.4894)"
       gradientUnits="userSpaceOnUse"
       id="radialGradient3023"
       xlink:href="#linearGradient2893"
       inkscape:collect="always" />
    <linearGradient
       id="linearGradient3017">
      <stop
         id="stop3019"
         offset="0"
         style="stop-color:white;stop-opacity:0;" />
      <stop
         id="stop3021"
         offset="1"
         style="stop-color:black;stop-opacity:0.64583331;" />
    </linearGradient>
    <linearGradient
       id="linearGradient3007">
      <stop
         id="stop3009"
         offset="0"
         style="stop-color:#ffffff;stop-opacity:0.3137255;" />
      <stop
         style="stop-color:#ffffff;stop-opacity:0.25098041;"
         offset="0.19"
         id="stop3011" />
      <stop
         id="stop3013"
         offset="0.60000002"
         style="stop-color:#6b6b6b;stop-opacity:0.1254902;" />
      <stop
         id="stop3015"
         offset="1"
         style="stop-color:#000000;stop-opacity:0.1254902;" />
    </linearGradient>
  </defs>
  <sodipodi:namedview
     inkscape:window-height="949"
     inkscape:window-width="1280"
     inkscape:pageshadow="2"
     inkscape:pageopacity="0.0"
     guidetolerance="10.0"
     gridtolerance="10.0"
     objecttolerance="10.0"
     borderopacity="1.0"
     bordercolor="#666666"
     pagecolor="#ffffff"
     id="base"
     inkscape:zoom="0.70710678"
     inkscape:cx="267.18888"
     inkscape:cy="727.63843"
     inkscape:window-x="0"
     inkscape:window-y="25"
     inkscape:current-layer="layer2"
     showgrid="true"
     showguides="true"
     inkscape:guide-bbox="true" />
  <desc
     id="desc22">Coat of Arms of Canton of Freiburg (Fribourg)</desc>
  <g
     inkscape:groupmode="layer"
     id="layer1"
     inkscape:label="Fond écu"
     style="opacity:1;display:inline"
     sodipodi:insensitive="true">
    <path
       style="fill:#5ab532;fill-opacity:1;stroke:none"
       id="path1968"
       d="M 1.5,460.368 C 1.5,626.679 135.814,761.5 301.5,761.5 C 467.186,761.5 601.5,626.679 601.5,460.368 L 601.5,1.5 L 1.4932838,1.5847697 L 1.4982063,337.84374 L 1.4982484,340.71874 L 1.5,460.368 z "
       sodipodi:nodetypes="cscccccc" />
    <path
       style="fill:#ffffff;fill-opacity:1;stroke:#000000;stroke-width:3;stroke-miterlimit:4;stroke-dasharray:none;stroke-opacity:1;display:inline"
       d="M 1.5,1.5 L 2.0303301,225.50492 L 602.03033,225.50492 L 601.5,1.5 L 1.5,1.5 z "
       id="path3235"
       sodipodi:nodetypes="ccccc" />
    <path
       id="path3233"
       style="fill:#ffffff;fill-opacity:1;stroke:#000000;stroke-width:3;stroke-miterlimit:4;stroke-opacity:1;display:inline"
       d="M 601.50002,307.3181 L 601.5,404.0625 C 599.88361,403.59079 598.1947,403.35083 596.5,403.29341 C 551.91693,403.53996 542.60898,425.41414 501.34864,424.60712 C 460.44185,423.8001 445.9114,398.71578 399.83331,398.24316 C 353.04812,397.77054 347.15058,424.73195 301.49997,425.41473 C 255.14225,426.09751 252.84482,397.52411 203.16663,398.24316 C 153.48844,398.96221 157.44234,424.69554 104.83331,424.70763 C 52.22428,424.71972 49.3789,401.19834 6.14645,399.30382 C 4.6155846,399.22147 3.0568597,399.28066 1.5038584,399.48794 L 1.5220988,302.74358 C 3.0436609,302.56447 4.6652347,302.32414 6.14645,302.40382 C 49.3789,304.29834 52.22428,327.81972 104.83331,327.80763 C 157.44234,327.79554 153.48844,302.06221 203.16663,301.34316 C 252.84482,300.62411 255.14225,329.19751 301.49997,328.51473 C 347.15058,327.83195 353.04812,300.87054 399.83331,301.34316 C 445.9114,301.81578 460.44185,326.9001 501.34864,327.70712 C 542.60898,328.51414 551.91693,306.63996 596.5,306.39341 C 598.20508,306.38398 599.86846,306.91322 601.50002,307.3181 z "
       sodipodi:nodetypes="ccccccssccccsscccsc" />
    <path
       id="path2230"
       style="fill:#ffffff;fill-opacity:1;stroke:#000000;stroke-width:3;stroke-miterlimit:4;stroke-opacity:1;display:inline"
       d="M 598.80233,500.97243 C 597.99742,500.80046 597.32324,500.38886 596.5,500.39341 C 551.91693,500.63996 542.60898,522.51414 501.34864,521.70712 C 460.44185,520.9001 445.9114,495.81578 399.83331,495.34316 C 353.04812,494.87054 347.15058,521.83195 301.49997,522.51473 C 255.14225,523.19751 252.84482,494.62411 203.16663,495.34316 C 153.48844,496.06221 157.44234,521.79554 104.83331,521.80763 C 52.22428,521.81972 49.3789,498.29834 6.14645,496.40382 C 5.3229816,496.35952 4.5224238,496.30364 3.6389008,496.391 C 8.0210952,533.41289 19.109682,568.37339 35.647756,600.01814 C 55.349415,607.56319 67.208731,618.71628 104.83331,618.70763 C 157.44234,618.69554 153.48844,592.96221 203.16663,592.24316 C 252.84482,591.52411 255.14225,620.09751 301.49997,619.41473 C 347.15058,618.73195 353.04812,591.77054 399.83331,592.24316 C 445.9114,592.71578 460.44185,617.8001 501.34864,618.60712 C 531.42736,619.19544 543.70776,609.18849 565.87008,602.83346 C 582.52782,571.75102 593.91155,537.39251 598.80233,500.97243 z "
       sodipodi:nodetypes="cscccsscccssccccc" />
  </g>
  <g
     inkscape:groupmode="layer"
     id="layer2"
     inkscape:label="Meubles"
     style="opacity:1;display:inline"
     sodipodi:insensitive="true">
    <g
       id="g3193"
       transform="translate(-243.47272,281.62622)">
      <path
         style="opacity:1;fill:#000000;fill-opacity:1;fill-rule:evenodd;stroke:none;stroke-width:3;stroke-linecap:butt;stroke-linejoin:miter;stroke-miterlimit:4;stroke-dasharray:none;stroke-opacity:1;display:inline"
         d="M 527.82691,-261.8082 L 552.49303,-228.92004 L 552.49303,-159.0327 L 584.0731,-177.26546 L 584.0731,-232.0033 L 569.31082,-246.76558 L 612.03804,-258.21431 L 638.53675,-232.74335 C 623.12042,-202.69178 627.23144,-173.66796 640.59226,-139.50535 C 640.59226,-139.50535 591.84582,-107.27492 574.95979,-71.817375 C 539.89325,-100.39038 484.11136,-99.715814 462.05059,-84.006591 C 452.32288,-93.991238 452.45845,-100.92702 462.05059,-111.75598 C 469.92819,-120.64932 508.59744,-121.65731 526.79916,-115.867 C 540.3987,-111.54073 589.74915,-106.36025 595.65874,-123.06127 C 601.46297,-139.46454 595.65874,-145.67189 595.65874,-145.67189 L 558.23792,-127.15023 L 505.78123,-163.16826 L 507.27181,-218.64249 C 504.18855,-228.23487 491.85549,-228.57745 488.77222,-219.67024 L 488.77222,-195.00412 L 471.30038,-206.30943 L 471.30038,-234.05881 L 527.82691,-261.8082 z "
         id="path3169"
         sodipodi:nodetypes="cccccccccccsszccccccccc" />
      <path
         style="opacity:1;fill:#fcef3c;fill-opacity:1;fill-rule:evenodd;stroke:#000000;stroke-width:3;stroke-linecap:butt;stroke-linejoin:miter;stroke-miterlimit:4;stroke-dasharray:none;stroke-opacity:1;display:inline"
         d="M 523.77682,-264.70711 L 548.02048,-232.38223 L 548.02048,-163.69185 L 579.05968,-181.61234 L 579.05968,-235.41268 L 564.55023,-249.92213 L 606.54566,-261.17477 L 632.59052,-236.14006 C 617.43823,-206.60318 621.47884,-178.07645 634.61083,-144.49895 C 634.61083,-144.49895 586.69927,-112.82053 570.10245,-77.970267 C 535.6365,-106.05391 480.80999,-105.39089 459.12705,-89.950717 C 449.56595,-99.764357 449.6992,-106.58135 459.12705,-117.22484 C 466.86973,-125.96587 504.87669,-126.95659 522.76667,-121.26545 C 536.13329,-117.01328 584.63851,-111.92153 590.44689,-128.33651 C 596.15171,-144.45884 590.44689,-150.55987 590.44689,-150.55987 L 553.66698,-132.35544 L 502.10872,-167.75658 L 503.57377,-222.2807 C 500.54331,-231.70879 488.42148,-232.04551 485.39102,-223.29085 L 485.39102,-199.04719 L 468.21842,-210.15887 L 468.21842,-237.43299 L 523.77682,-264.70711 z "
         id="path2220"
         sodipodi:nodetypes="cccccccccccsszccccccccc" />
    </g>
  </g>
  <g
     inkscape:groupmode="layer"
     id="layer3"
     inkscape:label="Reflet final"
     style="display:inline"
     sodipodi:insensitive="true">
    <path
       style="fill:url(#radialGradient3236);fill-opacity:1"
       d="M 1.5,1.5 L 1.5,460.3679 C 1.5,626.67854 135.81454,761.5 301.49993,761.5 C 467.1854,761.5 601.5,626.67854 601.5,460.3679 L 601.5,1.5 L 1.5,1.5 z "
       id="path2346" />
  </g>
  <g
     inkscape:groupmode="layer"
     id="layer4"
     inkscape:label="Contour final"
     style="display:inline"
     sodipodi:insensitive="true">
    <path
       style="fill:none;fill-opacity:1;stroke:#000000;stroke-width:3;stroke-miterlimit:4;stroke-dasharray:none;stroke-opacity:1"
       d="M 1.5,1.5 L 1.5,460.36794 C 1.5,626.67854 135.81454,761.5 301.49993,761.5 C 467.1854,761.5 601.5,626.67854 601.5,460.36794 L 601.5,1.5 L 1.5,1.5 z "
       id="path3239" />
  </g>
</svg>

<?xml version="1.0" encoding="UTF-8"?>
<svg version="1.0" viewBox="0 0 603 763" xmlns="http://www.w3.org/2000/svg" xmlns:cc="http://web.resource.org/cc/" xmlns:dc="http://purl.org/dc/elements/1.1/" xmlns:rdf="http://www.w3.org/1999/02/22-rdf-syntax-ns#" xmlns:xlink="http://www.w3.org/1999/xlink">
<metadata>
<rdf:RDF>
<cc:Work rdf:about="">
<dc:format>image/svg+xml</dc:format>
<dc:type rdf:resource="http://purl.org/dc/dcmitype/StillImage"/>
<dc:date>16-APR-2007</dc:date>
<dc:creator>
<cc:Agent>
<dc:title>Romain AVIOLAT (xens)</dc:title>
</cc:Agent>
</dc:creator>
<cc:license rdf:resource="http://creativecommons.org/licenses/GPL/2.0/"/>
<dc:coverage/>
<dc:description>Blason de la commune d'Yverdon pour le Projet:Blasons de WIkipédia</dc:description>
<dc:subject>
<rdf:Bag>
<rdf:li>blason suisse commune d'Yverdon projet blasons</rdf:li>
</rdf:Bag>
</dc:subject>
<dc:language>fr</dc:language>
<dc:title>blason de la commune d'Yverdon</dc:title>
</cc:Work>
<cc:License rdf:about="http://creativecommons.org/licenses/GPL/2.0/">
<cc:permits rdf:resource="http://web.resource.org/cc/Reproduction"/>
<cc:permits rdf:resource="http://web.resource.org/cc/Distribution"/>
<cc:requires rdf:resource="http://web.resource.org/cc/Notice"/>
<cc:permits rdf:resource="http://web.resource.org/cc/DerivativeWorks"/>
<cc:requires rdf:resource="http://web.resource.org/cc/ShareAlike"/>
<cc:requires rdf:resource="http://web.resource.org/cc/SourceCode"/>
</cc:License>
</rdf:RDF>
</metadata>
<defs>
<radialGradient id="a" cx="858.04" cy="579.93" r="300" gradientTransform="matrix(1.215 1.5316e-24 1.4647e-23 1.2667 -839.19 -490.49)" gradientUnits="userSpaceOnUse">
<stop stop-color="#fff" stop-opacity=".31373" offset="0"/>
<stop stop-color="#fff" stop-opacity=".25098" offset=".19"/>
<stop stop-color="#6b6b6b" stop-opacity=".12549" offset=".6"/>
<stop stop-opacity=".12549" offset="1"/>
</radialGradient>
</defs>
<desc>Coat of Arms of Canton of Freiburg (Fribourg)</desc>
<g>
<path d="m1.5 460.37c0 166.31 134.31 301.13 300 301.13s300-134.82 300-301.13v-458.87l-600.01 0.08477 0.0049225 336.26 4.21e-5 2.875 0.0017516 119.65z" fill="#5ab532"/>
<path d="m1.5 1.5 0.53033 224h600l-0.53033-224h-600z" fill="#fff" stroke="#000" stroke-width="3"/>
<path d="m601.5 307.32-2e-5 96.744c-1.6164-0.47171-3.3053-0.71167-5-0.76909-44.583 0.24655-53.891 22.121-95.151 21.314-40.907-0.80702-55.437-25.891-101.52-26.364-46.785-0.47262-52.683 26.489-98.333 27.172-46.358 0.68278-48.655-27.891-98.333-27.172s-45.724 26.452-98.333 26.464-55.454-23.509-98.687-25.404c-1.5309-0.08235-3.0896-0.02316-4.6426 0.18412l0.01824-96.744c1.5216-0.17911 3.1431-0.41944 4.6244-0.33976 43.232 1.8945 46.078 25.416 98.687 25.404s48.655-25.745 98.333-26.464 51.976 27.854 98.333 27.172c45.651-0.68278 51.548-27.644 98.333-27.172 46.078 0.47262 60.609 25.557 101.52 26.364 41.26 0.80702 50.568-21.067 95.151-21.314 1.7051-0.00943 3.3685 0.51981 5 0.92469z" fill="#fff" stroke="#000" stroke-width="3"/>
<path d="m598.8 500.97c-0.80491-0.17197-1.4791-0.58357-2.3023-0.57902-44.583 0.24655-53.891 22.121-95.151 21.314-40.907-0.80702-55.437-25.891-101.52-26.364-46.785-0.47262-52.683 26.489-98.333 27.172-46.358 0.68278-48.655-27.891-98.333-27.172s-45.724 26.452-98.333 26.464-55.454-23.509-98.687-25.404c-0.82347-0.0443-1.624-0.10018-2.5075-0.01282 4.3822 37.022 15.471 71.982 32.009 103.63 19.702 7.545 31.561 18.698 69.186 18.689 52.609-0.01209 48.655-25.745 98.333-26.464s51.976 27.854 98.333 27.172c45.651-0.68278 51.548-27.644 98.333-27.172 46.078 0.47262 60.609 25.557 101.52 26.364 30.079 0.58832 42.359-9.4186 64.521-15.774 16.658-31.082 28.041-65.441 32.932-101.86z" fill="#fff" stroke="#000" stroke-width="3"/>
<g transform="translate(-243.47 281.63)" fill-rule="evenodd">
<path d="m527.83-261.81 24.666 32.888v69.887l31.58-18.233v-54.738l-14.762-14.762 42.727-11.449 26.499 25.471c-15.416 30.052-11.305 59.075 2.0555 93.238 0 0-48.746 32.23-65.632 67.688-35.067-28.573-90.848-27.898-112.91-12.189-9.7277-9.9846-9.5921-16.92 0-27.749 7.8776-8.8933 46.547-9.9013 64.749-4.111 13.6 4.3263 62.95 9.5068 68.86-7.1943 5.8042-16.403 0-22.611 0-22.611l-37.421 18.522-52.457-36.018 1.4906-55.474c-3.0833-9.5924-15.416-9.935-18.5-1.0278v24.666l-17.472-11.305v-27.749l56.527-27.749z"/>
<path d="m523.78-264.71 24.244 32.325v68.69l31.039-17.92v-53.8l-14.509-14.509 41.995-11.253 26.045 25.035c-15.152 29.537-11.112 58.064 2.0203 91.641 0 0-47.912 31.678-64.508 66.529-34.466-28.084-89.292-27.421-110.98-11.98-9.5611-9.8136-9.4278-16.631 0-27.274 7.7427-8.741 45.75-9.7318 63.64-4.0406 13.367 4.2522 61.872 9.3439 67.68-7.0711 5.7048-16.122 0-22.223 0-22.223l-36.78 18.204-51.558-35.401 1.465-54.524c-3.0305-9.4281-15.152-9.7648-18.183-1.0102v24.244l-17.173-11.112v-27.274l55.558-27.274z" fill="#fcef3c" stroke="#000" stroke-width="3"/>
</g>
</g>
<g>
<path d="m1.5 1.5v458.87c0 166.31 134.31 301.13 300 301.13 165.69 0 300-134.82 300-301.13v-458.87h-600z" fill="url(#a)"/>
<path d="m1.5 1.5v458.87c0 166.31 134.31 301.13 300 301.13 165.69 0 300-134.82 300-301.13v-458.87h-600z" fill="none" stroke="#000" stroke-width="3"/>
</g>
</svg>
